works/just/images/common/svg/logo.svg

<?xml version="1.0" encoding="UTF-8" standalone="no"?>
<svg
   width="57"
   height="59"
   viewBox="0 0 57 59"
   fill="none"
   version="1.1"
   id="svg6"
   sodipodi:docname="logo.svg"
   inkscape:version="1.1 (c68e22c387, 2021-05-23)"
   xmlns:inkscape="http://www.inkscape.org/namespaces/inkscape"
   xmlns:sodipodi="http://sodipodi.sourceforge.net/DTD/sodipodi-0.dtd"
   xmlns="http://www.w3.org/2000/svg"
   xmlns:svg="http://www.w3.org/2000/svg">
  <defs
     id="defs10" />
  <sodipodi:namedview
     id="namedview8"
     pagecolor="#ffffff"
     bordercolor="#666666"
     borderopacity="1.0"
     inkscape:pageshadow="2"
     inkscape:pageopacity="0.0"
     inkscape:pagecheckerboard="0"
     showgrid="false"
     inkscape:zoom="14.79661"
     inkscape:cx="28.520046"
     inkscape:cy="29.5"
     inkscape:window-width="2560"
     inkscape:window-height="1411"
     inkscape:window-x="2391"
     inkscape:window-y="-9"
     inkscape:window-maximized="1"
     inkscape:current-layer="svg6" />
  <g
     id="g829"
     transform="translate(-0.23605,0.248291)">
    <path
       fill-rule="evenodd"
       clip-rule="evenodd"
       d="M 11.2155,33.0594 H 2.28844 v 9.9164 h 7.31652 v 1.2884 H 2.28844 V 57.977 H 1 V 31.7939 h 1.28844 8.90406 v 1.2655 z m 17.1639,-1.2655 h 1.3115 V 57.977 H 28.4024 V 35.4292 L 21.9372,53.2143 15.426,35.4292 V 57.977 H 14.1375 V 31.7939 h 1.3115 l 6.4652,17.6701 z m 6.5113,24.9176 h 8.2828 V 58 H 34.8907 33.6022 V 31.7939 h 1.2885 z M 54.8615,31.7939 h 1.4035 l -5.0847,13.0225 -0.0461,0.1151 V 57.977 H 49.8458 V 44.9315 L 49.7998,44.8164 44.715,31.7939 h 1.4035 l 4.3485,11.2279 z"
       fill="#010004"
       stroke="#010004"
       stroke-width="0.216"
       stroke-miterlimit="22.9256"
       id="path2" />
    <path
       fill-rule="evenodd"
       clip-rule="evenodd"
       d="M 12.527,0.618458 V 1.92991 8.11904 9.47651 21.3716 c 0,0.7823 -0.138,1.4955 -0.4371,2.1858 -0.2991,0.6902 -0.6903,1.2884 -1.1965,1.7716 -0.5061,0.5061 -1.08133,0.8973 -1.77157,1.1964 -0.66723,0.2991 -1.40348,0.4371 -2.16274,0.4371 -0.78227,0 -1.49552,-0.138 -2.18575,-0.4371 C 4.0831,26.2263 3.48489,25.8351 3.00173,25.329 2.49555,24.8228 2.10442,24.2246 1.80531,23.5574 1.50621,22.8671 1.36816,22.1539 1.36816,21.3716 v -4.1414 h 1.28845 v 4.1414 c 0,0.5982 0.11504,1.1504 0.34512,1.6796 0.23008,0.5292 0.55219,0.9893 0.92031,1.3805 0.39114,0.3911 0.8513,0.6902 1.38048,0.9203 0.52918,0.23 1.08137,0.3451 1.67958,0.3451 0.5982,0 1.15039,-0.1151 1.65657,-0.3451 0.50617,-0.2301 0.96633,-0.5522 1.35746,-0.9203 0.39117,-0.3912 0.69027,-0.8513 0.92027,-1.3805 0.2301,-0.5292 0.3452,-1.0814 0.3452,-1.6796 V 9.4535 8.09603 1.88389 H 4.29017 V 0.595448 h 6.97143 1.2654 z m 15.1162,0 v 11.158842 0.6672 8.9041 c 0,0.7823 -0.138,1.4955 -0.4371,2.1857 -0.2991,0.6903 -0.6903,1.2885 -1.1965,1.7717 -0.5061,0.5061 -1.0813,0.8973 -1.7716,1.1964 -0.6672,0.2991 -1.4035,0.4371 -2.1627,0.4371 -0.7593,0 -1.4955,-0.138 -2.1858,-0.4371 -0.6902,-0.2991 -1.2884,-0.6903 -1.7716,-1.1964 -0.5061,-0.5062 -0.8973,-1.1044 -1.1964,-1.7717 -0.2991,-0.6902 -0.4371,-1.4034 -0.4371,-2.1857 V 12.4445 11.7773 0.618458 h 1.2884 v 11.158842 0.6672 8.9041 c 0,0.5982 0.115,1.1504 0.3451,1.6796 0.2301,0.5292 0.5522,0.9893 0.9203,1.3804 0.3912,0.3912 0.8513,0.6903 1.3805,0.9204 0.5292,0.23 1.0814,0.3451 1.6796,0.3451 0.5982,0 1.1504,-0.1151 1.6566,-0.3451 0.5061,-0.2301 0.9663,-0.5522 1.3574,-0.9204 0.3912,-0.3911 0.6903,-0.8512 0.9203,-1.3804 0.2301,-0.5292 0.3452,-1.0814 0.3452,-1.6796 V 12.4445 11.7773 0.618458 Z M 37.4446,12.9737 c 0.6442,0.5062 1.2884,1.0584 1.9096,1.6106 0.6443,0.5522 1.1964,1.1734 1.7026,1.8176 0.5062,0.6672 0.9203,1.4035 1.2194,2.2087 0.2991,0.8053 0.4602,1.7256 0.4602,2.784 0,0.7823 -0.138,1.4955 -0.4372,2.1858 -0.2991,0.6902 -0.6902,1.2884 -1.1964,1.7946 -0.5061,0.5061 -1.0813,0.8973 -1.7716,1.1964 -0.6672,0.2991 -1.4035,0.4371 -2.1627,0.4371 -0.7823,0 -1.4955,-0.138 -2.1858,-0.4371 -0.6902,-0.2991 -1.2884,-0.6903 -1.7716,-1.1964 -0.5062,-0.5062 -0.8973,-1.1044 -1.1964,-1.7716 -0.2991,-0.6903 -0.4371,-1.4035 -0.4371,-2.1858 h 1.2884 c 0,0.5982 0.115,1.1504 0.3451,1.6796 0.2301,0.5292 0.5522,0.9893 0.9203,1.3805 0.3912,0.3911 0.8513,0.6902 1.3805,0.9203 0.5292,0.2301 1.0814,0.3451 1.6796,0.3451 0.5982,0 1.1504,-0.115 1.6566,-0.3451 0.5061,-0.2301 0.9663,-0.5522 1.3574,-0.9203 0.3912,-0.3912 0.6903,-0.8513 0.9203,-1.3805 0.2301,-0.5292 0.3452,-1.0814 0.3452,-1.6796 0,-0.8743 -0.1381,-1.6566 -0.4142,-2.3698 -0.2761,-0.6902 -0.6442,-1.3345 -1.0814,-1.9097 -0.4601,-0.5752 -0.9663,-1.1273 -1.5415,-1.6335 -0.5752,-0.5062 -1.1734,-1.0124 -1.7946,-1.4955 -0.6212,-0.4832 -1.2424,-0.9894 -1.8406,-1.5416 -0.5982,-0.5291 -1.1504,-1.1043 -1.6336,-1.7256 -0.4832,-0.6212 -0.8743,-1.31141 -1.1734,-2.04766 -0.2991,-0.75926 -0.4372,-1.61056 -0.4372,-2.5999 0,-0.78227 0.1381,-1.49551 0.4372,-2.18575 0.2991,-0.69024 0.6902,-1.28844 1.1964,-1.77161 0.5062,-0.50617 1.1044,-0.89731 1.7716,-1.196413 0.6903,-0.299103 1.4035,-0.437149 2.1858,-0.437149 0.7822,0 1.4955,0.138046 2.1627,0.437149 0.6672,0.299103 1.2655,0.690243 1.7716,1.173403 0.5062,0.50618 0.8973,1.08137 1.1964,1.77161 0.2991,0.69024 0.4372,1.40348 0.4372,2.18575 H 41.471 c 0,-0.5982 -0.1151,-1.15039 -0.3452,-1.65657 C 40.8958,3.90859 40.5737,3.44843 40.2055,3.0573 39.8144,2.66616 39.3772,2.36706 38.8481,2.13698 38.3419,1.9069 37.7667,1.79186 37.1915,1.79186 c -0.5982,0 -1.1504,0.11504 -1.6796,0.34512 -0.5292,0.23008 -0.9893,0.55219 -1.3805,0.92032 -0.3911,0.39113 -0.6902,0.85129 -0.9203,1.35746 -0.2301,0.50618 -0.3451,1.08138 -0.3451,1.65657 0,0.82829 0.138,1.56454 0.3911,2.18576 0.2531,0.64422 0.5982,1.21941 1.0354,1.77161 0.4371,0.5522 0.9203,1.0584 1.4725,1.5415 0.5062,0.4602 1.0814,0.9203 1.6796,1.4035 z M 56.4721,0.618458 V 1.9069 H 51.2493 V 26.8245 H 49.9609 V 1.9069 H 44.7381 V 0.618458 h 5.2228 1.2884 z"
       fill="#010004"
       stroke="#010004"
       stroke-width="0.216"
       stroke-miterlimit="22.9256"
       id="path4" />
  </g>
</svg>

<svg width="57" height="59" viewBox="0 0 57 59" fill="none" xmlns="http://www.w3.org/2000/svg">
<path fill-rule="evenodd" clip-rule="evenodd" d="M11.2155 33.0594H2.28844V42.9758H9.60496V44.2642H2.28844V57.977H1V31.7939H2.28844H11.1925V33.0594H11.2155ZM28.3794 31.7939H29.6909V57.977H28.4024V35.4292L21.9372 53.2143L15.426 35.4292V57.977H14.1375V31.7939H15.449L21.9142 49.464L28.3794 31.7939ZM34.8907 56.7115H43.1735V58H34.8907H33.6022V31.7939H34.8907V56.7115ZM54.8615 31.7939H56.265L51.1803 44.8164L51.1342 44.9315V57.977H49.8458V44.9315L49.7998 44.8164L44.715 31.7939H46.1185L50.467 43.0218L54.8615 31.7939Z" fill="#010004" stroke="#010004" stroke-width="0.216" stroke-miterlimit="22.9256"/>
<path fill-rule="evenodd" clip-rule="evenodd" d="M12.527 0.618458V1.92991V8.11904V9.47651V21.3716C12.527 22.1539 12.389 22.8671 12.0899 23.5574C11.7908 24.2476 11.3996 24.8458 10.8934 25.329C10.3873 25.8351 9.81207 26.2263 9.12183 26.5254C8.4546 26.8245 7.71835 26.9625 6.95909 26.9625C6.17682 26.9625 5.46357 26.8245 4.77334 26.5254C4.0831 26.2263 3.48489 25.8351 3.00173 25.329C2.49555 24.8228 2.10442 24.2246 1.80531 23.5574C1.50621 22.8671 1.36816 22.1539 1.36816 21.3716V17.2302H2.65661V21.3716C2.65661 21.9698 2.77165 22.522 3.00173 23.0512C3.23181 23.5804 3.55392 24.0405 3.92204 24.4317C4.31318 24.8228 4.77334 25.1219 5.30252 25.352C5.8317 25.582 6.38389 25.6971 6.9821 25.6971C7.5803 25.6971 8.13249 25.582 8.63867 25.352C9.14484 25.1219 9.605 24.7998 9.99613 24.4317C10.3873 24.0405 10.6864 23.5804 10.9164 23.0512C11.1465 22.522 11.2616 21.9698 11.2616 21.3716V9.4535V8.09603V1.88389H4.29017V0.595448H11.2616H12.527V0.618458ZM27.6432 0.618458V11.7773V12.4445V21.3486C27.6432 22.1309 27.5052 22.8441 27.2061 23.5343C26.907 24.2246 26.5158 24.8228 26.0096 25.306C25.5035 25.8121 24.9283 26.2033 24.238 26.5024C23.5708 26.8015 22.8345 26.9395 22.0753 26.9395C21.316 26.9395 20.5798 26.8015 19.8895 26.5024C19.1993 26.2033 18.6011 25.8121 18.1179 25.306C17.6118 24.7998 17.2206 24.2016 16.9215 23.5343C16.6224 22.8441 16.4844 22.1309 16.4844 21.3486V12.4445V11.7773V0.618458H17.7728V11.7773V12.4445V21.3486C17.7728 21.9468 17.8878 22.499 18.1179 23.0282C18.348 23.5574 18.6701 24.0175 19.0382 24.4086C19.4294 24.7998 19.8895 25.0989 20.4187 25.329C20.9479 25.559 21.5001 25.6741 22.0983 25.6741C22.6965 25.6741 23.2487 25.559 23.7549 25.329C24.261 25.0989 24.7212 24.7768 25.1123 24.4086C25.5035 24.0175 25.8026 23.5574 26.0326 23.0282C26.2627 22.499 26.3778 21.9468 26.3778 21.3486V12.4445V11.7773V0.618458H27.6432ZM37.4446 12.9737C38.0888 13.4799 38.733 14.0321 39.3542 14.5843C39.9985 15.1365 40.5506 15.7577 41.0568 16.4019C41.563 17.0691 41.9771 17.8054 42.2762 18.6106C42.5753 19.4159 42.7364 20.3362 42.7364 21.3946C42.7364 22.1769 42.5984 22.8901 42.2992 23.5804C42.0001 24.2706 41.609 24.8688 41.1028 25.375C40.5967 25.8811 40.0215 26.2723 39.3312 26.5714C38.664 26.8705 37.9277 27.0085 37.1685 27.0085C36.3862 27.0085 35.673 26.8705 34.9827 26.5714C34.2925 26.2723 33.6943 25.8811 33.2111 25.375C32.7049 24.8688 32.3138 24.2706 32.0147 23.6034C31.7156 22.9131 31.5776 22.1999 31.5776 21.4176H32.866C32.866 22.0158 32.981 22.568 33.2111 23.0972C33.4412 23.6264 33.7633 24.0865 34.1314 24.4777C34.5226 24.8688 34.9827 25.1679 35.5119 25.398C36.0411 25.6281 36.5933 25.7431 37.1915 25.7431C37.7897 25.7431 38.3419 25.6281 38.8481 25.398C39.3542 25.1679 39.8144 24.8458 40.2055 24.4777C40.5967 24.0865 40.8958 23.6264 41.1258 23.0972C41.3559 22.568 41.471 22.0158 41.471 21.4176C41.471 20.5433 41.3329 19.761 41.0568 19.0478C40.7807 18.3576 40.4126 17.7133 39.9754 17.1381C39.5153 16.5629 39.0091 16.0108 38.4339 15.5046C37.8587 14.9984 37.2605 14.4922 36.6393 14.0091C36.0181 13.5259 35.3969 13.0197 34.7987 12.4675C34.2005 11.9384 33.6483 11.3632 33.1651 10.7419C32.6819 10.1207 32.2908 9.43049 31.9917 8.69424C31.6926 7.93498 31.5545 7.08368 31.5545 6.09434C31.5545 5.31207 31.6926 4.59883 31.9917 3.90859C32.2908 3.21835 32.6819 2.62015 33.1881 2.13698C33.6943 1.63081 34.2925 1.23967 34.9597 0.940567C35.65 0.641464 36.3632 0.503418 37.1455 0.503418C37.9277 0.503418 38.641 0.641464 39.3082 0.940567C39.9754 1.23967 40.5737 1.63081 41.0798 2.11397C41.586 2.62015 41.9771 3.19534 42.2762 3.88558C42.5753 4.57582 42.7134 5.28906 42.7134 6.07133H41.471C41.471 5.47313 41.3559 4.92094 41.1258 4.41476C40.8958 3.90859 40.5737 3.44843 40.2055 3.0573C39.8144 2.66616 39.3772 2.36706 38.8481 2.13698C38.3419 1.9069 37.7667 1.79186 37.1915 1.79186C36.5933 1.79186 36.0411 1.9069 35.5119 2.13698C34.9827 2.36706 34.5226 2.68917 34.1314 3.0573C33.7403 3.44843 33.4412 3.90859 33.2111 4.41476C32.981 4.92094 32.866 5.49614 32.866 6.07133C32.866 6.89962 33.004 7.63587 33.2571 8.25709C33.5102 8.90131 33.8553 9.4765 34.2925 10.0287C34.7296 10.5809 35.2128 11.0871 35.765 11.5702C36.2712 12.0304 36.8464 12.4905 37.4446 12.9737ZM56.4721 0.618458V1.9069H51.2493V26.8245H49.9609V1.9069H44.7381V0.618458H49.9609H51.2493H56.4721Z" fill="#010004" stroke="#010004" stroke-width="0.216" stroke-miterlimit="22.9256"/>
</svg>
